X: 14112
T: Miss Lawder
T: Miss Lauder
%R: strathspey, march, reel
B: James Oswald "The Caledonian Pocket Companion" v.1 b.4 p.11 #2 (and all of p.12)
S: https://ia800501.us.archive.org/18/items/caledonianpocket01rugg/caledonianpocket01rugg_bw.pdf
Z: 2020 John Chambers <jc:trillian.mit.edu>
M: C
L: 1/16
K: D
%%slurgraces 1
%%graceslurs 1
|:\
d4 {de}f4 A4 g4 | f3g {fg}a4 D4 (Tg3f) | e4 A3f (g3f)(Te3d) | {d}Tc8 {cd}e8 |\
d4 {de}f4 A4 g4 | f3g {fg}a4 D4 (f3g) | a4 f3a d'4 d3a | {g}Tf8 {fg}a8 |
(b2g2)(d2g2) (b2g2)(d'2b2) | (a2f2)(d2f2) (a2f2)(d'2f2) |(g2f2)(e2d2) (c3d/e/) A2e2 | {d}Tc8 e4 (B3c) |\
(d2c2)(B2A2) (B2A2)(G2F2) | GABc d2F2 E4 g4 |
f3g {b}a2(gf) e2(fg) (fe)(dc) | {c}d8 D8 ::\
d4 f8 (edcd) | e2A2 g4 (Tg3f)(Tf3e) | f4 (efga) b2(ag) f(ebd) | {d}c8 {cd}e8 |
d4 f8 (edcd) | (e3f) g8 (fefg) | a4 (defg) (a2d'2) (c'bag) | {g}Tf8 {fg}a8 |\
b2g2 d4- d2(ef) g(abg) | a2f2 d4- defg (afba) |
g2e2 B4 b3a (gfed) | {d}Tc8{cd}e8 |\
G4 (GBAG) (F2A2)(d2F2) | E2(GF) (GF)(ED) E4 g4 | f3g (afdA) (B3d)(c3e) | d8 D8 :|
|:\
(d3e/f/) A2d2 D2(d2c2d2) | (f3g/a/) A2d2 D2(d2c2d2) | (g/a/b3) (e/f/g3) B4 {a}g2fe | {d}Tc8 {cd}e8 |\
(d/e/f3) A2d2 D2(d2c2d2) | (f/g/a3) A2d2 D2(d2c2d2) |
(f/g/a3) d2a2 (d'2d2c2d2) | Tf8 {fg}a8 |\
(g/a/b3) G2b2 G2(b2a2g2) | (f/g/a3) F2a2 F2(a2g2f2) | (e/f/g3) E2g2 E4 {a}g2(fe) | Tc8 {cd}e8 |
d6 c2 {c}TB6 A2 | (d2B2)(B2F2) E4 g4 | (f2g2)(a2b2) f4 (g/f/e3) | d8 D8 ::\
d2f2e2g2 f2d2e2A2 | d2(df) e2(eg) f2d2e2A2 |
d2A2e2A2 (g2f2)(e2d2) | Tc8 {cd}e8 | d2f2e2g2 f2d2e2A2 |\
(d/e/f3) (e/f/g3) f2d2e2A2 | a2d2c2d2 d'2d2c2d2 | Tf8 {fg}a8 |\
b2g2f2g2 G2g2f2g2 |
a2f2e2f2 F2f2e2f2 | g2f2e2d2 c2e2A2e2 | Tc8 e4 B2c2 |\
d2 D4 F4 A4 d2 | {fg}a2(gf e2)d2 (c2B2)(A2G2) | F2A2d2F2 E2e2A2c2 | d2cB AGFE D8 :|

% Page 11 is the rest of the 2nd tune on p.10.


